symbols/web/filter/materialsymbolsoutlined/filter_wght700grad200_48px.svg

<svg xmlns="http://www.w3.org/2000/svg" height="48" width="48"><path d="M18.15 28.2h19.3l-6.35-8.4-5.05 6.55-3.25-4.25Zm-3.9 10.05q-1.8 0-3.175-1.375Q9.7 35.5 9.7 33.7V6.6q0-1.8 1.375-3.2Q12.45 2 14.25 2h27.1q1.8 0 3.175 1.4Q45.9 4.8 45.9 6.6v27.1q0 1.8-1.375 3.175-1.375 1.375-3.175 1.375Zm0-4.55h27.1V6.6h-27.1v27.1ZM6.7 45.8q-1.85 0-3.2-1.375T2.15 41.25V9.6H6.7v31.65h31.65v4.55Zm7.55-39.2v27.1V6.6Z"/></svg>

<svg xmlns="http://www.w3.org/2000/svg" height="48" width="48"><path d="M18.15 28.2H37.45L31.1 19.8L26.05 26.35L22.8 22.1ZM14.25 38.25Q12.45 38.25 11.075 36.875Q9.7 35.5 9.7 33.7V6.6Q9.7 4.8 11.075 3.4Q12.45 2 14.25 2H41.35Q43.15 2 44.525 3.4Q45.9 4.8 45.9 6.6V33.7Q45.9 35.5 44.525 36.875Q43.15 38.25 41.35 38.25ZM14.25 33.7H41.35Q41.35 33.7 41.35 33.7Q41.35 33.7 41.35 33.7V6.6Q41.35 6.6 41.35 6.6Q41.35 6.6 41.35 6.6H14.25Q14.25 6.6 14.25 6.6Q14.25 6.6 14.25 6.6V33.7Q14.25 33.7 14.25 33.7Q14.25 33.7 14.25 33.7ZM14.25 6.6Q14.25 6.6 14.25 6.6Q14.25 6.6 14.25 6.6V33.7Q14.25 33.7 14.25 33.7Q14.25 33.7 14.25 33.7Q14.25 33.7 14.25 33.7Q14.25 33.7 14.25 33.7V6.6Q14.25 6.6 14.25 6.6Q14.25 6.6 14.25 6.6ZM6.7 45.8Q4.85 45.8 3.5 44.425Q2.15 43.05 2.15 41.25V9.6H6.7V41.25Q6.7 41.25 6.7 41.25Q6.7 41.25 6.7 41.25H38.35V45.8Z"/></svg>
